; generated by PrusaSlicer 2.3.3+win64 on 2022-09-29 at 00:18:24 UTC

; 

; external perimeters extrusion width = 0.45mm
; perimeters extrusion width = 0.45mm
; infill extrusion width = 0.45mm
; solid infill extrusion width = 0.45mm
; top infill extrusion width = 0.45mm
; support material extrusion width = 0.38mm
; first layer extrusion width = 0.42mm

M201 X500 Y500 Z100 E5000 ; sets maximum accelerations, mm/sec^2
M203 X500 Y500 Z10 E60 ; sets maximum feedrates, mm/sec
M204 P500 R1000 T500 ; sets acceleration (P, T) and retract acceleration (R), mm/sec^2
M205 X8.00 Y8.00 Z0.40 E5.00 ; sets the jerk limits, mm/sec
M205 S0 T0 ; sets the minimum extruding and travel feed rate, mm/sec
M107
;TYPE:Custom
G90 ; use absolute coordinates
M83 ; extruder relative mode
M140 S60 ; set final bed temp
M104 S150 ; set temporary nozzle temp to prevent oozing during homing
G4 S10 ; allow partial nozzle warmup
G28 ; home all axis
G1 Z50 F240
G1 X2 Y10 F3000
M104 S210 ; set final nozzle temp
M190 S60 ; wait for bed temp to stabilize
M109 S210 ; wait for nozzle temp to stabilize
G1 Z0.28 F240
G92 E0
G1 Y140 E10 F1500 ; prime the nozzle
G1 X2.3 F5000
G92 E0
G1 Y10 E10 F1200 ; prime the nozzle
G92 E0
G21 ; set units to millimeters
G90 ; use absolute coordinates
M83 ; use relative distances for extrusion
; Filament gcode
;LAYER_CHANGE
;Z:0.2
;HEIGHT:0.2
;BEFORE_LAYER_CHANGE
G92 E0
;0.2


G1 E-5.00000 F3600.000
G1 Z0.200 F9000.000
;AFTER_LAYER_CHANGE
;0.2
G1 X92.874 Y76.905
G1 E5.00000 F2400.000
M204 S500
;TYPE:Skirt
;WIDTH:0.42
G1 F1200.000
G1 X106.880 Y72.068 E0.46459
G1 X107.687 Y71.902 E0.02584
G1 X175.291 Y69.564 E2.12093
G1 X183.379 Y69.563 E0.25360
G1 X184.020 Y69.625 E0.02018
G1 X184.641 Y69.809 E0.02032
G1 X185.212 Y70.107 E0.02018
G1 X185.719 Y70.510 E0.02032
G1 X186.138 Y70.999 E0.02018
G1 X186.458 Y71.563 E0.02032
G1 X186.663 Y72.173 E0.02018
G1 X186.749 Y72.815 E0.02032
G1 X186.729 Y86.436 E0.42706
G1 X186.588 Y87.083 E0.02075
G1 X184.287 Y94.012 E0.22893
G1 X179.701 Y105.812 E0.39696
G1 X167.461 Y134.107 E0.96659
G1 X165.165 Y137.101 E0.11831
G1 X162.100 Y139.745 E0.12692
G1 X161.572 Y140.090 E0.01976
G1 X156.979 Y142.453 E0.16197
G1 X129.085 Y154.193 E0.94892
G1 X117.197 Y158.941 E0.40137
G1 X109.164 Y161.407 E0.26344
G1 X98.800 Y161.435 E0.32498
G1 X97.933 Y161.293 E0.02754
G1 X90.426 Y158.910 E0.24694
G1 X78.625 Y154.191 E0.39851
G1 X50.758 Y142.509 E0.94743
G1 X45.876 Y140.162 E0.16983
G1 X45.144 Y139.563 E0.02965
G1 X44.604 Y138.781 E0.02979
G1 X44.351 Y138.097 E0.02287
G1 X44.250 Y137.370 E0.02302
G1 X44.250 Y126.409 E0.34367
G1 X44.447 Y125.356 E0.03359
G1 X44.964 Y124.417 E0.03359
G1 X92.004 Y77.529 E2.08246
G1 X92.825 Y76.940 E0.03171
G1 E-3.50000 F3600.000
;WIPE_START
G1 F7200.000
G1 X95.660 Y75.957 E-1.42500
;WIPE_END
G1 E-0.07500 F3600.000
G1 X94.384 Y90.703 F9000.000
G1 E5.00000 F2400.000
;TYPE:Support material
G1 F1200.000
G1 X94.384 Y79.925 E0.33793
G1 X95.138 Y79.925 E0.02365
G1 X95.138 Y90.534 E0.33261
G1 X95.892 Y90.534 E0.02365
G1 X95.892 Y79.925 E0.33261
G1 X96.646 Y79.925 E0.02365
G1 X96.646 Y92.862 E0.40562
G1 X97.400 Y92.862 E0.02365
G1 X97.400 Y79.925 E0.40562
G1 X98.154 Y79.925 E0.02365
G1 X98.154 Y92.862 E0.40562
G1 X98.909 Y92.862 E0.02365
G1 X98.909 Y79.925 E0.40562
G1 X99.663 Y79.925 E0.02365
G1 X99.663 Y92.862 E0.40562
G1 X100.417 Y92.862 E0.02365
G1 X100.417 Y79.925 E0.40562
G1 X101.171 Y79.925 E0.02365
G1 X101.171 Y92.862 E0.40562
G1 X101.925 Y92.862 E0.02365
G1 X101.925 Y79.925 E0.40562
G1 X102.176 Y79.925 E0.00787
G1 X102.176 Y82.254 E0.07301
G1 X102.679 Y82.254 E0.01578
G1 X102.679 Y92.862 E0.33261
G1 X103.433 Y92.862 E0.02365
G1 X103.433 Y82.254 E0.33261
G1 X104.188 Y82.254 E0.02365
G1 X104.188 Y92.862 E0.33261
G1 X104.942 Y92.862 E0.02365
G1 X104.942 Y82.254 E0.33261
G1 X105.539 Y82.254 E0.01872
G1 X105.539 Y79.925 E0.07301
G1 X105.696 Y79.925 E0.00492
G1 X105.696 Y92.862 E0.40562
G1 X106.450 Y92.862 E0.02365
G1 X106.450 Y79.925 E0.40562
G1 X107.204 Y79.925 E0.02365
G1 X107.204 Y92.862 E0.40562
G1 X107.958 Y92.862 E0.02365
G1 X107.958 Y75.268 E0.55164
G1 X108.713 Y75.268 E0.02365
G1 X108.713 Y92.862 E0.55164
G1 X109.467 Y92.862 E0.02365
G1 X109.467 Y75.268 E0.55164
G1 X110.221 Y75.268 E0.02365
G1 X110.221 Y92.862 E0.55164
G1 X110.975 Y92.862 E0.02365
G1 X110.975 Y75.268 E0.55164
G1 X111.729 Y75.268 E0.02365
G1 X111.729 Y92.862 E0.55164
G1 X112.483 Y92.862 E0.02365
G1 X112.483 Y75.268 E0.55164
G1 X113.238 Y75.268 E0.02365
G1 X113.238 Y92.862 E0.55164
G1 X113.819 Y92.862 E0.01822
G1 X113.819 Y88.205 E0.14602
G1 X113.992 Y88.205 E0.00543
G1 X113.992 Y75.268 E0.40562
G1 X114.746 Y75.268 E0.02365
G1 X114.746 Y88.205 E0.40562
G1 X115.500 Y88.205 E0.02365
G1 X115.500 Y75.268 E0.40562
G1 X116.254 Y75.268 E0.02365
G1 X116.254 Y88.205 E0.40562
G1 X117.008 Y88.205 E0.02365
G1 X117.008 Y75.268 E0.40562
G1 X117.762 Y75.268 E0.02365
G1 X117.762 Y88.375 E0.41094
G1 E-3.50000 F3600.000
;WIPE_START
G1 F7200.000
G1 X117.762 Y85.375 E-1.42500
;WIPE_END
G1 E-0.07500 F3600.000
G1 X151.700 Y131.966 F9000.000
G1 E5.00000 F2400.000
G1 F1200.000
G1 X151.700 Y131.481 E0.01521
G1 X150.945 Y131.481 E0.02365
G1 X150.945 Y132.095 E0.01924
G1 X150.191 Y132.407 E0.02559
G1 X150.191 Y131.311 E0.03436
G1 E-3.50000 F3600.000
;WIPE_START
G1 F7200.000
G1 X150.191 Y132.407 E-0.52049
G1 X150.945 Y132.095 E-0.38774
G1 X150.945 Y131.481 E-0.29151
G1 X151.420 Y131.481 E-0.22526
;WIPE_END
G1 E-0.07500 F3600.000
G1 X146.421 Y134.153 F9000.000
G1 E5.00000 F2400.000
G1 F1200.000
G1 X146.421 Y133.809 E0.01076
G1 X145.666 Y133.809 E0.02365
G1 X145.666 Y134.281 E0.01480
G1 X144.912 Y134.594 E0.02559
G1 X144.912 Y133.809 E0.02459
G1 X144.158 Y133.809 E0.02365
G1 X144.158 Y134.906 E0.03438
G1 X143.404 Y135.218 E0.02559
G1 X143.404 Y133.640 E0.04950
G1 E-3.50000 F3600.000
;WIPE_START
G1 F7200.000
G1 X143.404 Y135.218 E-0.74989
G1 X144.158 Y134.906 E-0.38774
G1 X144.158 Y134.301 E-0.28737
;WIPE_END
G1 E-0.07500 F3600.000
G1 X141.141 Y136.339 F9000.000
G1 E5.00000 F2400.000
G1 F1200.000
G1 X141.141 Y136.138 E0.00631
G1 X140.387 Y136.138 E0.02365
G1 X140.387 Y136.468 E0.01035
G1 X139.633 Y136.780 E0.02559
G1 X139.633 Y136.138 E0.02014
G1 X138.879 Y136.138 E0.02365
G1 X138.879 Y137.276 E0.03570
G1 E-3.50000 F3600.000
;WIPE_START
G1 F7200.000
G1 X138.879 Y136.138 E-0.54079
G1 X139.633 Y136.138 E-0.35823
G1 X139.633 Y136.780 E-0.30517
G1 X140.063 Y136.602 E-0.22082
;WIPE_END
G1 E-0.07500 F3600.000
G1 X135.108 Y138.838 F9000.000
G1 E5.00000 F2400.000
G1 F1200.000
G1 X135.108 Y138.466 E0.01166
G1 X134.354 Y138.466 E0.02365
G1 X134.354 Y139.151 E0.02146
G1 X134.354 Y140.026 F9000.000
G1 F1200.000
G1 X134.354 Y140.214 E0.00589
G1 X149.437 Y133.962 E0.51194
G1 X149.437 Y134.150 E0.00589
G1 X150.191 Y133.466 F9000.000
G1 F1200.000
G1 X150.191 Y133.654 E0.00589
G1 X156.225 Y131.150 E0.20481
G1 X156.225 Y131.338 E0.00589
G1 X155.470 Y130.404 F9000.000
G1 F1200.000
G1 X155.470 Y129.152 E0.03924
G1 X156.225 Y129.152 E0.02365
G1 X156.225 Y130.092 E0.02945
G1 X157.733 Y130.539 F9000.000
G1 F1200.000
G1 X157.733 Y130.189 E0.01099
G1 X158.487 Y128.368 E0.06179
G1 X158.487 Y128.822 E0.01422
G1 X157.733 Y127.632 F9000.000
G1 F1200.000
G1 X157.733 Y126.654 E0.03066
G1 E-3.50000 F3600.000
;WIPE_START
G1 F7200.000
G1 X157.733 Y127.632 E-0.46451
;WIPE_END
G1 E-1.03549 F3600.000
G1 X159.995 Y125.180 F9000.000
G1 E5.00000 F2400.000
G1 F1200.000
G1 X159.995 Y124.726 E0.01422
G1 X163.766 Y115.623 E0.30895
G1 X163.766 Y116.077 E0.01422
G1 X162.258 Y116.708 F9000.000
G1 F1200.000
G1 X162.258 Y115.012 E0.05318
G1 E-3.50000 F3600.000
;WIPE_START
G1 F7200.000
G1 X162.258 Y116.708 E-0.80569
;WIPE_END
G1 E-0.69431 F3600.000
G1 X160.750 Y120.349 F9000.000
G1 E5.00000 F2400.000
G1 F1200.000
G1 X160.750 Y119.838 E0.01602
G1 X159.995 Y119.838 E0.02365
G1 X159.995 Y122.170 E0.07311
G1 E-3.50000 F3600.000
;WIPE_START
G1 F7200.000
G1 X159.995 Y119.838 E-1.10752
G1 X160.664 Y119.838 E-0.31748
;WIPE_END
G1 E-0.07500 F3600.000
G1 X183.374 Y86.046 F9000.000
G1 E5.00000 F2400.000
G1 F1200.000
G1 X183.374 Y72.940 E0.41094
G1 X182.620 Y72.940 E0.02365
G1 X182.620 Y85.877 E0.40562
G1 X181.866 Y85.877 E0.02365
G1 X181.866 Y72.940 E0.40562
G1 X181.112 Y72.940 E0.02365
G1 X181.112 Y92.862 E0.62465
G1 X180.358 Y92.862 E0.02365
G1 X180.358 Y83.254 E0.30126
G1 X179.604 Y83.254 E0.02365
G1 X179.604 Y92.862 E0.30126
G1 X179.016 Y92.862 E0.01841
G1 X179.016 Y97.519 E0.14602
G1 X178.849 Y97.519 E0.00524
G1 X178.849 Y83.254 E0.44728
G1 X178.722 Y83.254 E0.00399
G1 X178.722 Y90.239 E0.21902
G1 X178.095 Y90.239 E0.01966
G1 X178.095 Y97.519 E0.22825
G1 X177.341 Y97.519 E0.02365
G1 X177.341 Y90.239 E0.22825
G1 X176.587 Y90.239 E0.02365
G1 X176.587 Y104.505 E0.44728
G1 X175.833 Y104.505 E0.02365
G1 X175.833 Y94.896 E0.30126
G1 X175.079 Y94.896 E0.02365
G1 X175.079 Y104.505 E0.30126
G1 X174.359 Y104.505 E0.02255
G1 X174.359 Y109.162 E0.14602
G1 X174.324 Y109.162 E0.00110
G1 X174.324 Y94.896 E0.44728
G1 X174.065 Y94.896 E0.00813
G1 X174.065 Y101.882 E0.21902
G1 X173.570 Y101.882 E0.01552
G1 X173.570 Y109.162 E0.22825
G1 X172.816 Y109.162 E0.02365
G1 X172.816 Y101.882 E0.22825
G1 X172.062 Y101.882 E0.02365
G1 X172.062 Y109.162 E0.22825
G1 X172.031 Y109.162 E0.00097
G1 X172.031 Y113.819 E0.14602
G1 X171.308 Y113.819 E0.02268
G1 X171.308 Y106.539 E0.22825
G1 X170.554 Y106.539 E0.02365
G1 X170.554 Y113.819 E0.22825
G1 X169.799 Y113.819 E0.02365
G1 X169.799 Y106.539 E0.22825
G1 X169.408 Y106.539 E0.01227
G1 X169.408 Y111.196 E0.14602
G1 X169.045 Y111.196 E0.01138
G1 X169.045 Y120.804 E0.30126
G1 X168.291 Y120.804 E0.02365
G1 X168.291 Y111.196 E0.30126
G1 X167.537 Y111.196 E0.02365
G1 X167.537 Y120.804 E0.30126
G1 X167.374 Y120.804 E0.00511
G1 X167.374 Y125.461 E0.14602
G1 X166.783 Y125.461 E0.01854
G1 X166.783 Y118.181 E0.22825
G1 X166.029 Y118.181 E0.02365
G1 X166.029 Y125.461 E0.22825
G1 X165.274 Y125.461 E0.02365
G1 X165.274 Y118.181 E0.22825
G1 X164.751 Y118.181 E0.01641
G1 X164.751 Y122.838 E0.14602
G1 X164.520 Y122.838 E0.00724
G1 X164.520 Y132.447 E0.30126
G1 X163.766 Y132.447 E0.02365
G1 X163.766 Y122.838 E0.30126
G1 X163.012 Y122.838 E0.02365
G1 X163.012 Y132.447 E0.30126
G1 X162.717 Y132.447 E0.00925
G1 X162.717 Y134.775 E0.07301
G1 X162.258 Y134.775 E0.01440
G1 X162.258 Y129.824 E0.15525
G1 X161.504 Y129.824 E0.02365
G1 X161.504 Y134.775 E0.15525
G1 X160.750 Y134.775 E0.02365
G1 X160.750 Y129.824 E0.15525
G1 X160.094 Y129.824 E0.02055
G1 X160.094 Y132.152 E0.07301
G1 X159.995 Y132.152 E0.00310
G1 X159.995 Y137.104 E0.15525
G1 X159.241 Y137.104 E0.02365
G1 X159.241 Y132.152 E0.15525
G1 X158.487 Y132.152 E0.02365
G1 X158.487 Y137.104 E0.15525
G1 X157.733 Y137.104 E0.02365
G1 X157.733 Y134.481 E0.08224
G1 X156.979 Y134.481 E0.02365
G1 X156.979 Y137.104 E0.08224
G1 X156.225 Y137.104 E0.02365
G1 X156.225 Y134.481 E0.08224
G1 X155.470 Y134.481 E0.02365
G1 X155.470 Y139.432 E0.15525
G1 X154.716 Y139.432 E0.02365
G1 X154.716 Y134.481 E0.15525
G1 X153.962 Y134.481 E0.02365
G1 X153.962 Y139.432 E0.15525
G1 X153.208 Y139.432 E0.02365
G1 X153.208 Y134.481 E0.15525
G1 X153.109 Y134.481 E0.00311
G1 X153.109 Y136.809 E0.07301
G1 X152.454 Y136.809 E0.02053
G1 X152.454 Y139.432 E0.08224
G1 X151.700 Y139.432 E0.02365
G1 X151.700 Y136.809 E0.08224
G1 X150.945 Y136.809 E0.02365
G1 X150.945 Y139.432 E0.08224
G1 X150.191 Y139.432 E0.02365
G1 X150.191 Y136.809 E0.08224
G1 X149.437 Y136.809 E0.02365
G1 X149.437 Y139.432 E0.08224
G1 X148.746 Y139.432 E0.02167
G1 X148.746 Y141.761 E0.07301
G1 X148.683 Y141.761 E0.00198
G1 X148.683 Y136.809 E0.15525
G1 X147.929 Y136.809 E0.02365
G1 X147.929 Y141.761 E0.15525
G1 X147.175 Y141.761 E0.02365
G1 X147.175 Y136.809 E0.15525
G1 X146.421 Y136.809 E0.02365
G1 X146.421 Y141.761 E0.15525
G1 X145.666 Y141.761 E0.02365
G1 X145.666 Y139.138 E0.08224
G1 X144.912 Y139.138 E0.02365
G1 X144.912 Y141.761 E0.08224
G1 X144.158 Y141.761 E0.02365
G1 X144.158 Y139.138 E0.08224
G1 X143.404 Y139.138 E0.02365
G1 X143.404 Y144.089 E0.15525
G1 X142.650 Y144.089 E0.02365
G1 X142.650 Y139.138 E0.15525
G1 X141.896 Y139.138 E0.02365
G1 X141.896 Y144.089 E0.15525
G1 X141.141 Y144.089 E0.02365
G1 X141.141 Y141.466 E0.08224
G1 X140.387 Y141.466 E0.02365
G1 X140.387 Y144.089 E0.08224
G1 X139.633 Y144.089 E0.02365
G1 X139.633 Y141.466 E0.08224
G1 X138.879 Y141.466 E0.02365
G1 X138.879 Y146.418 E0.15525
G1 X138.125 Y146.418 E0.02365
G1 X138.125 Y141.466 E0.15525
G1 X137.371 Y141.466 E0.02365
G1 X137.371 Y146.418 E0.15525
G1 X136.616 Y146.418 E0.02365
G1 X136.616 Y143.795 E0.08224
G1 X135.862 Y143.795 E0.02365
G1 X135.862 Y146.418 E0.08224
G1 X135.108 Y146.418 E0.02365
G1 X135.108 Y143.795 E0.08224
G1 X134.354 Y143.795 E0.02365
G1 X134.354 Y146.418 E0.08224
G1 X133.600 Y146.418 E0.02365
G1 X133.600 Y143.795 E0.08224
G1 X132.846 Y143.795 E0.02365
G1 X132.846 Y146.418 E0.08224
G1 X132.447 Y146.418 E0.01251
G1 X132.447 Y148.746 E0.07301
G1 X132.091 Y148.746 E0.01113
G1 X132.091 Y143.795 E0.15525
G1 X131.337 Y143.795 E0.02365
G1 X131.337 Y148.746 E0.15525
G1 X130.583 Y148.746 E0.02365
G1 X130.583 Y143.795 E0.15525
G1 X129.829 Y143.795 E0.02365
G1 X129.829 Y148.746 E0.15525
G1 X129.075 Y148.746 E0.02365
G1 X129.075 Y146.123 E0.08224
G1 X128.321 Y146.123 E0.02365
G1 X128.321 Y148.746 E0.08224
G1 X127.790 Y148.746 E0.01665
G1 X127.790 Y151.075 E0.07301
G1 X127.567 Y151.075 E0.00699
G1 X127.567 Y146.123 E0.15525
G1 X126.812 Y146.123 E0.02365
G1 X126.812 Y151.075 E0.15525
G1 X126.058 Y151.075 E0.02365
G1 X126.058 Y146.123 E0.15525
G1 X125.304 Y146.123 E0.02365
G1 X125.304 Y151.075 E0.15525
G1 X124.550 Y151.075 E0.02365
G1 X124.550 Y148.452 E0.08224
G1 X123.796 Y148.452 E0.02365
G1 X123.796 Y151.075 E0.08224
G1 X123.042 Y151.075 E0.02365
G1 X123.042 Y148.452 E0.08224
G1 X122.287 Y148.452 E0.02365
G1 X122.287 Y151.075 E0.08224
G1 X121.533 Y151.075 E0.02365
G1 X121.533 Y148.452 E0.08224
G1 X120.779 Y148.452 E0.02365
G1 X120.779 Y153.403 E0.15525
G1 X120.025 Y153.403 E0.02365
G1 X120.025 Y148.452 E0.15525
G1 X119.271 Y148.452 E0.02365
G1 X119.271 Y153.403 E0.15525
G1 X118.517 Y153.403 E0.02365
G1 X118.517 Y148.452 E0.15525
G1 X118.181 Y148.452 E0.01051
G1 X118.181 Y150.780 E0.07301
G1 X117.762 Y150.780 E0.01313
G1 X117.762 Y153.403 E0.08224
G1 X117.008 Y153.403 E0.02365
G1 X117.008 Y150.780 E0.08224
G1 X116.254 Y150.780 E0.02365
G1 X116.254 Y153.403 E0.08224
G1 X116.147 Y153.403 E0.00336
G1 X116.147 Y155.732 E0.07301
G1 X115.500 Y155.732 E0.02029
G1 X115.500 Y150.780 E0.15525
G1 X114.746 Y150.780 E0.02365
G1 X114.746 Y155.732 E0.15525
G1 X113.992 Y155.732 E0.02365
G1 X113.992 Y150.780 E0.15525
G1 X113.524 Y150.780 E0.01465
G1 X113.524 Y153.109 E0.07301
G1 X113.238 Y153.109 E0.00899
G1 X113.238 Y155.732 E0.08224
G1 X112.483 Y155.732 E0.02365
G1 X112.483 Y153.109 E0.08224
G1 X111.729 Y153.109 E0.02365
G1 X111.729 Y155.732 E0.08224
G1 X110.975 Y155.732 E0.02365
G1 X110.975 Y153.109 E0.08224
G1 X110.221 Y153.109 E0.02365
G1 X110.221 Y155.732 E0.08224
G1 X109.467 Y155.732 E0.02365
G1 X109.467 Y153.109 E0.08224
G1 X108.713 Y153.109 E0.02365
G1 X108.713 Y158.060 E0.15525
G1 X107.958 Y158.060 E0.02365
G1 X107.958 Y153.109 E0.15525
G1 X107.204 Y153.109 E0.02365
G1 X107.204 Y158.060 E0.15525
G1 X106.450 Y158.060 E0.02365
G1 X106.450 Y155.437 E0.08224
G1 X105.696 Y155.437 E0.02365
G1 X105.696 Y158.060 E0.08224
G1 X104.942 Y158.060 E0.02365
G1 X104.942 Y155.437 E0.08224
G1 X104.188 Y155.437 E0.02365
G1 X104.188 Y158.060 E0.08224
G1 X103.433 Y158.060 E0.02365
G1 X103.433 Y155.437 E0.08224
G1 X102.679 Y155.437 E0.02365
G1 X102.679 Y158.060 E0.08224
G1 X101.925 Y158.060 E0.02365
G1 X101.925 Y155.437 E0.08224
G1 X101.176 Y155.437 E0.02348
G1 X101.176 Y153.109 E0.07301
G1 X101.171 Y158.060 E0.15525
G1 X100.417 Y158.060 E0.02365
G1 X100.417 Y153.109 E0.15525
G1 X99.663 Y153.109 E0.02365
G1 X99.663 Y158.060 E0.15525
G1 X98.908 Y158.060 E0.02365
G1 X98.908 Y153.109 E0.15525
G1 X98.154 Y153.109 E0.02365
G1 X98.154 Y155.732 E0.08224
G1 X97.400 Y155.732 E0.02365
G1 X97.400 Y153.109 E0.08224
G1 X96.646 Y153.109 E0.02365
G1 X96.646 Y155.732 E0.08224
G1 X95.892 Y155.732 E0.02365
G1 X95.892 Y153.109 E0.08224
